X:1
T:Let Zion Move
M:2/4
L:1/8
K:G
 D| ED D G/2A/2| BA G3/2 A/2| BB d e/2d/2| BG A3/2 B/2| GG DD| E3/2 D/2 DG|\
 GD GA| G2 G| B| d3/2 e/2 dd| BG D2| G/2A/2 Bd B| dd/2-e/2 d2| BA GE|\
 DD/2-E/2 D2| GA BA/2-G/2| G2 G|:|

